X:1
T:Puis que j'ay mis
T:Puis que j'ay mis
T:Thomas Crecquillon
C:Thomas Crecquillon
%%score [ 1 2 [ 3 4 ] ]
L:1/8
Q:1/4=84
M:2/2
K:C
V:1 treble nm="Superius" snm="S"
V:2 treble nm="Altus" snm="A"
V:3 treble-8 nm="Tenor 1" snm="T 1"
V:4 treble-8 nm="Tenor 2" snm="T 2"
V:1
 d4 B2 c2 | d2 e2 f3 e | d2 c4 B2 | c2 e2 c2 d2 | e2 f4 ed | f2 e2 d2 c2 | B2 A4 G2 | A8- | A8 | %9
w: Puis que j'ay|mis tout mon en-|ten- * *||||* * de-|ment|_|
 z2 A2 A3 B |"^b" c2 d2 B4 | A2 A2 ABcd | e2 c2 e2 f2 | d4 c2 A2 | c2 d2 B4 | A8 | z4 z2 d2- | %17
w: à vous _|_ ser- vir|bien et per- * * *|fec- * * *|te- ment, per-|faic- * te-|ment,|de|
 d2 c2 d4 | A2 A2 c3 d | e2 f2 g2 f2- | f2 ed c4- | c2 c2 d2 d2 | e4 z4 | z2 e2 d2 c2 | g2 g2 f4- | %25
w: _ tout mon|cueur pour vo- stre|bon- ne gra- *|* * * ce,|_ à tous le|moins|à tous le|moins, le bien|
 f2 e2 d2 c2- | c2 B2 AB cA | Bc d3 c c2- | c2 B2 c4- | c8 |: z2 A2 A2 A2 | D2 d3 d c2 | %32
w: _ que _ je|_ pour- chas- * * *||* * se,|_|oc- troi- ez|moy ou je meurs|
 B2 B2 A2 A2 | A2 A2 DEFG | ABcd e2 f2 | e2 d4 cB |1 c8 :|2"^#" e2 d4 c2 || d8 |] %39
w: aul- tre- ment, oc-|troi- ez moy _ _ _|_ _ _ _ ou je|meurs aul- tre- *|ment,|meurs aul- tre-|ment.|
V:2
 z8 | z2 A4 F2 | G2 A4 GF | E2 c2 A2 B2- | BA A4 G2 | A6 A2 | G2 F2 E4- | E4 z2 A,B, | %8
w: |Puis que|j'ay mis tout _|mon en- ten- *|||* de- ment|_ à _|
 CD E2 C2 D2 | F4 E2 A2- | AG F4 E2 | F3 G A2 A2 | G2 F2 E2 A2- | A2 G2 A4- | A2 F2 G4 | E4 F2 A2 | %16
w: _ _ vous ser- vir|bien et par-|* * fec- *|||* te- ment,|_ _ _|* ment, de|
 B2 c2 A4- | A8 | z2 A2 A2 A2 | B2 c3 B A2- | A2 G2 A4- | A2 A2 G2 F2 | c2 c2 B2 A2 | G4 z4 | %24
w: tout mon cueur|_|pour vo- stre|bon- * ne gra-|* * ce,|_ à tous le|moins, à tous le|moins,|
 z2 G2 A2 D2 | G6 A2 | G4 E3 F | G2 A4 F2 | G4 E4 | z4 z2 A2 |: A2 A2 D2 A2- | A2 G2 A4 | %32
w: à tous le|moins, le|bien que _|_ je pour|chas- se,|oc-|troi- ez moy ou|_ je meurs|
 F2 G2 E4 | D2 F3 E D2 | C2 c2 B2 A2 | B4 A4- |1 A4 z2 A2 :|2 B4 A4- || A8 |] %39
w: aul- tre- ment,|oc- troi- ez moy|ou je meurs aul-|tre- ment,|_ oc-|tre- ment.|_|
V:3
 z8 | z4 d4 | B2 c2 d4 | c3 d e2 f2 | g2 c2 d4- | d2 c2 f3 e | d2 c2 B4 | A2 A2 ABcd | %8
w: |Puis|que j'ay mis|tout _ _ mon|en- ten _|_ _ _ _|* * de|ment à vous _ _ _|
 e2 c2 e2 f2 | d2 d2 c2 f2 |"^b" e2 d4 cB | c2 f4 f2 | e2 a2 g2 f2- | f2 ed e2 f2 | e2 d2 e2 d2- | %15
w: _ ser- vir bien|et per- fec- *|* * te- *|ment, per- fec-|||* te- ment, de|
 d2 c2 d2 f2- | f2 e2 f4 | e4 d4 | f2 f2 e3 f | g2 c2 e2 f2 | d4 e4- | e4 z4 | c4 d2 d2 | %23
w: _ tout _ _|_ _ _|* mon|cueur pour vo- stre|bon- ne gra- *|* ce,|_|à tous le|
 e2 c2 d2 e2- | ed c4 B2 | c2 c2 B2 A2 | e2 d4 c2 | d2 f3 e c2 | d4 c2 e2 | e2 e2 A2 e2 |: f6 e2 | %31
w: moins, le bien que|_ _ _ _|je pour- chas- *|||* se, oc-|troi- ez moy ou|je- meurs|
 f2 d2 f2 e2- | e2 d4 c2 | d4 z2 d2 | e3 f g2 a2 | g3 f e2 e2 |1 e2 e2 A2 e2 :|2 g3 f e4 || d8 |] %39
w: aul- * * *|* * tre-|ment,- ou|je _ _ meurs,|ou- _ je meurs|aul tre- ment ou|aul- * tre-|ment.|
V:4
 z8 | z8 |"^#" z2 A2 F2 G2 | A6 d2 | c2 A2 B4 | A4 D2 F2 | G2 A2 E4 | A8- | A4 z2 D2 | DEFG A2 F2 | %10
w: ||Puis que j'ay|mis tout|mon en- ten-|||ment|_ à|vous _ _ _ _ ser-|
"^b" A2 B2 G2 G2 | F2 DE FGAB | c2 F2 c2 d2 |"^b" B4 A2 F2 | A2 B2 G4 | A4 D2 d2- | d2 c2 d4 | %17
w: vir per- fec- te-|ment, per- * fec- * * *||||* ment, de|_ tout mon|
 A4 z2 D2 | DEFG A2 A2 | G2 F2 c2 d2 | B4 A4- | A4 z4 | z2 A2 G2 F2 | c2 c2 B2 A2 | G2 E2 D4 | %25
w: cueur pour|vo- * * * * stre|bon- ne gra- *|* ce,|_|à tous le|moins, que je pour-|chas- * *|
 C4 z2 F2 | G2 G2 A3 A | G2 F2 A4 | G4 A4 | z2 A2 A2 A2 |: D2 d3 d c2 |"^b""^b" B2 B2 A4 | %32
w: se, le|bien que je pour-|chas- * *|* se,|oc- troi- ez|moy ou je meurs|aul- tre- ment,|
"^b" B2 G2 A4 | D4 _B4 | A4 G2 F2 | G4 A4 |1 A4 A2 A2 :|2 G4 A4 || D8 |] %39
w: aul- * tre-|ment, ou|je meurs aul-|tre- ment,|oc- troi- ez|tre- *|ment.|

